!! J.S. Bach, Die Kunst der Fuge; Fuga 8a in d minor; BWV 1080.
!! Encoded from "Bach; Die Kunst der Fuge", (Carl Czerny, ed.)
!! New York: C.F. Peters Co., pp.46-48; in three voices.
!! Performance duration: 3:05; performance tempo: 92.0 quarter-notes per minute.
!! (Davitt Moroney, harpsichord, "Bach, 'Die Kunst der Fuge'",
!! NOTE: This is the first part of a two-part fugue.
!!       The second part (inversion) is encoded as a separate file (kdf.13b).
!! Harmonia Mundi No. HMC 1169.70)
**kern	**kern	**kern
*d:	*d:	*d:
*M4/4	*M4/4	*M4/4
*MM92	*MM92	*MM92
4r	4r	4dd'
=1	=1	=1
1r	1r	4a'
.	.	[4aa
.	.	12aa]
.	.	12gg
.	.	12ff
.	.	12gg
.	.	12ff
.	.	12ee
=2	=2	=2
1r	1r	12ff
.	.	12ee
.	.	12dd
.	.	[4ee
.	.	12ee]
.	.	12dd
.	.	12cc#
.	.	12dd
.	.	12cc#
.	.	12bn
=3	=3	=3
1r	1r	12cc#
.	.	12dd
.	.	12ee
.	.	[4dd
.	.	12dd]
.	.	12ee
.	.	12ff
.	.	12ee
.	.	12ff
.	.	12gg
=4	=4	=4
1r	2r	8.ff
.	.	16dd
.	.	8.a
.	.	16dd
.	4r	8.ff
.	.	16gg
.	4a	8.ff
.	.	16ee
=5	=5	=5
1r	4dd'	12dd
.	.	12gg
.	.	12ee
.	[4d	12ff
.	.	12gg
.	.	12aa
.	12d]	4bb-
.	12e	.
.	12f	.
.	12e	4cc#
.	12f	.
.	12g	.
=6	=6	=6
1r	12f	[4dd
.	12g	.
.	12a	.
.	[4g	12dd]
.	.	12ee
.	.	12ff
.	12g]	[2ee
.	12a	.
.	12b-	.
.	12a	.
.	12b-	.
.	12cc	.
=7	=7	=7
1r	12b-	4ee_
.	12a	.
.	12g	.
.	[4a	12ee]
.	.	12ff
.	.	12gg
.	12a]	8.ff
.	12g	.
.	12f	.
.	.	16a
.	12g	8.bn
.	12f	.
.	12e	.
.	.	16cc#
=8	=8	=8
2r	8.f	[2dd
.	16a	.
.	8.dd	.
.	16a	.
4r	8.f	8.dd]
.	16e	16cc#
4A'	8.f	8.dd
.	16g	16ee
=9	=9	=9
4D	12a	4ff
.	12b-	.
.	12cc	.
[4d	12b-	4r
.	12a	.
.	12g	.
12d]	4f#	4r
12c	.	.
12B-	.	.
12c	4ee-	4ff#
12B-	.	.
12A	.	.
=10	=10	=10
12B-	4dd	12gg
12A	.	12ff#
12G	.	12een
[4A	4r	12ff#
.	.	12gg
.	.	12ee
12A]	4r	12ff#
12G	.	12gg
12F#	.	12aa
12G	[4d	12bb-
12F#	.	12aa
12E	.	12gg
=11	=11	=11
12F#	4d]	4aa
12G	.	.
12A	.	.
[4G	12e-	4r
.	12d	.
.	12fn	.
12G]	2e-	4r
12A	.	.
12B-	.	.
12A	.	4ff#
12B-	.	.
12c	.	.
=12	=12	=12
8.B-	[1d	4gg
16G	.	.
8.D	.	4bb-
16G	.	.
8.B-	.	4gg
16c	.	.
8.B-	.	8.dd
16A	.	16cc
=13	=13	=13
2G	8.d]	4b-
.	16g	.
.	8.b-	4dd
.	16g	.
4r	8.d	4b-
.	16c	.
4B-	8.d	4g
.	16e	.
=14	=14	=14
4A	8.f	4a
.	16c	.
8.F	8.A	4aa
16G	16c	.
4A	8.f	2r
.	16a	.
4BBn	8.g	.
.	16f	.
=15	=15	=15
2C	8.e	4r
.	16a	.
.	8.c	4ee
.	16a	.
4r	8.e	4cc
.	16d	.
4c	8.e	4a
.	16f#	.
=16	=16	=16
4B-	8.g	4b-
.	16d	.
8.G	8.B-	4bb-
16A	16d	.
4B-	8.g	2r
.	16b-	.
4C#	8.a	.
.	16g	.
=17	=17	=17
4.D	8.f	1r
.	16e	.
.	8.f	.
8E	.	.
.	16g	.
8.F	8.a	.
16G	16g	.
8.A	8.f	.
16F	16a	.
=18	=18	=18
4c	8.e	1r
.	16d	.
4C	8.e	.
.	16f	.
4E	8.g	.
.	16f	.
4G	8.e	.
.	16g	.
=19	=19	=19
4.B-	8.d	2r
.	16c#	.
.	8.d	.
16A	.	.
16G	16e	.
8.d	8.f	4r
16G	16g	.
8.F	8.a	4aa'
16E	16g	.
=20	=20	=20
4.D	8.f	4ddd'
.	16g	.
.	8.f	[4dd
8E	.	.
.	16e	.
12F	4d	12dd]
12G	.	12ee
12A	.	12ff
8.G	4b-	12ee
.	.	12ff
.	.	12gg
16C#	.	.
=21	=21	=21
12D	4a	12ff
12E	.	12gg
12F	.	12aa
12E	4c#	[4gg
12B-	.	.
12G	.	.
12E	4r	12gg]
12F#	.	12aa
[12G	.	12bb-
8.G]	4e-	12aa
.	.	12bb-
.	.	12ccc
16F#	.	.
=22	=22	=22
12G	4d	12bb-
12Fn	.	12aa
12En	.	12gg
12F	4r	[4aa
12A	.	.
12d	.	.
12c	4r	12aa]
12B-	.	12gg
12A	.	12ff
12B-	4d	12gg
12A	.	12ff
12G	.	12ee
=23	=23	=23
4A	4a	8.ff
.	.	16aa
4F	4r	8.ddd
.	.	16aa
4A	4r	8.ff
.	.	16ee
4d	4a	8.ff#
.	.	16gg#
=24	=24	=24
8.c	4e	4aa
16A	.	.
8.E	4r	8.ggn
16A	.	16ff#
8.c	4r	4ee
16e	.	.
8.d	4a	4ff#
16c	.	.
=25	=25	=25
4Bn	4bn	8.gg
.	.	16bbn
4G	4r	8.eee
.	.	16bb
4B	4r	8.gg
.	.	16ff#
4e	4b	8.gg
.	.	16aa
=26	=26	=26
8.d	4f#	4bbn
16Bn	.	.
8.F#	4r	8.aa
16B	.	16gg
8.d	4r	4ff#
16fn	.	.
8.e	4bn	4gg#
16d	.	.
=27	=27	=27
4c'	4e	8.aa
.	.	16bbn
[4C	4r	8.ccc
.	.	16bb-
12C]	2r	8.aa
12D	.	.
12E	.	.
.	.	16gg
12D	.	8.ff
12E	.	.
12F	.	.
.	.	16aa
=28	=28	=28
12E	2r	[4gg
12F	.	.
12G	.	.
[4F	.	12gg]
.	.	12aa
.	.	12bb-
12F]	4r	12aa
12G	.	12bb-
12A	.	12ccc
12G	4f	12bb-
12A	.	12ccc
12B-	.	12ddd
=29	=29	=29
4A	4c'	12ccc
.	.	12cc
.	.	12b-
4F	[4cc	12a
.	.	12b-
.	.	12cc
4A	12cc]	[2ff
.	12b-	.
.	12a	.
4d	12b-	.
.	12a	.
.	12g	.
=30	=30	=30
[1c	12a	12ff]
.	12g	12ee
.	12f	12dd
.	[4g	12ee
.	.	12ff
.	.	12dd
.	12g]	4ee
.	12f	.
.	12e	.
.	12f	4aa
.	12e	.
.	12d	.
=31	=31	=31
1c_	12e	12gg
.	12f	12aa
.	12g	12bb-
.	[4f	12aa
.	.	12gg
.	.	12bb-
.	12f]	4aa
.	12g	.
.	12a	.
.	12g	4ee
.	12a	.
.	12b-	.
=32	=32	=32
2c]	8.a	12ff
.	.	12ccc
.	.	12aa
.	16f	.
.	8.c	12ff
.	.	12aa
.	.	12ff
.	16f	.
4r	8.a	8.cc
.	16b-	16gg
4c'	8.a	8.ff
.	16g	16ee-
=33	=33	=33
4f'	4f	12dd
.	.	12cc
.	.	12b-
[4F	4a	12cc
.	.	12b-
.	.	12a
12F]	8.dd	[2ff
12G	.	.
12A	.	.
.	16cc	.
12G	8.b-	.
12A	.	.
12B-	.	.
.	16dd	.
=34	=34	=34
12A	[4cc	1ff_
12B-	.	.
12c	.	.
[4B-	12cc]	.
.	12dd	.
.	12ee-	.
12B-]	12dd	.
12c	12cc	.
12d	12b-	.
12c	12a	.
12d	12b-	.
12e-	12cc	.
=35	=35	=35
12d	12b-	1ff_
12c	12a	.
12B-	12g	.
[4c	12a	.
.	12g	.
.	12b-	.
12c]	12a	.
12B-	12b-	.
12A	12cc	.
12B-	12dd	.
12A	12cc	.
12G	12b-	.
=36	=36	=36
8.A	4cc	2ff]
16c	.	.
8.f	4a	.
16c	.	.
8.A	4f	4r
16G	.	.
8.A	4cc	4aa
16Bn	.	.
=37	=37	=37
12c	4g	4ee'
12e	.	.
12d	.	.
12c	4r	[4eee
12Bn	.	.
12A	.	.
8.G#	4bn	12eee]
.	.	12ddd
.	.	12ccc
16A	.	.
8.B	4r	12ddd
.	.	12ccc
.	.	12bbn
16G#	.	.
=38	=38	=38
12A	[1e	12ccc
12G#	.	12bbn
12F#	.	12aa
12G#	.	[4bb
12E	.	.
12G#	.	.
12Bn	.	12bb]
12c	.	12aa
12d	.	12gg#
12c	.	12aa
12B	.	12gg#
12A	.	12ff#
=39	=39	=39
12Bn	1e_	12gg#
12c	.	12aa
12d	.	12bbn
12c	.	[4aa
12e	.	.
12d	.	.
12c	.	12aa]
12B	.	12bb
12A	.	12ccc
12G#	.	12bb
12A	.	12ccc
12B	.	12ddd
=40	=40	=40
12A	1e_	8.ccc
12e	.	.
12c	.	.
.	.	16aa
12A	.	8.ee
12c	.	.
12A	.	.
.	.	16aa
8.E	.	8.ccc
16F	.	16ddd
8.E	.	8.ccc
16D	.	16bbn
=41	=41	=41
8.C	2e]	4aa
16E	.	.
8.A	.	4ccc
16E	.	.
8.C	4r	4aa
16BBn	.	.
8.C	4e	8.ee
16D	.	16ff
=42	=42	=42
4E	2Bn	8.gg
.	.	16ee
4G	.	8.bn
.	.	16ee
4E	4r	8.gg
.	.	16bb-
4C#	4e	8.aa
.	.	16gg
=43	=43	=43
8.D	2f	4ff
16F	.	.
8.B-	.	4ddd
16F	.	.
8.D	4r	4bb-
16Cn	.	.
8.D	4f	8.ff
16E	.	16gg
=44	=44	=44
4F	2c	8.aa
.	.	16ff
4A	.	8.cc
.	.	16ff
4F	4r	8.aa
.	.	16gg
4D	4f	8.bb-
.	.	16aa
=45	=45	=45
4E	8.g	2gg
.	16e	.
4A	8.c#	.
.	16e	.
4B-	8.g	4r
.	16f	.
4r	8.g	4cc#
.	16a	.
=46	=46	=46
8r	8.b-	4dd
16B-	.	.
16A	16g	.
16G	8.e	4r
16F	.	.
16E	.	.
16D	16g	.
4C#	8.b-	8.r
.	16a	16f
4r	8.bn	12g
.	.	12f
.	.	12e
.	16cc#	.
=47	=47	=47
12r	8.dd	4b-
12G	.	.
12D	.	.
.	16b-	.
12E	8.g	4r
12F	.	.
12G	.	.
.	16b-	.
12F	8.dd	4r
12G	.	.
12A	.	.
.	16cc#	.
12B-	8.dd	4gg'
12A	.	.
12G	.	.
.	16ee	.
=48	=48	=48
4F	12ff	4ddd'
.	12dd	.
.	12a	.
4r	12f	[4dd
.	12g	.
.	12a	.
4r	2b-	12dd]
.	.	12ee
.	.	12ff
4c#	.	12ee
.	.	12ff
.	.	12gg
=49	=49	=49
12d	4a	12ff
12e	.	12gg
12f	.	12aa
12e	4c#	[4gg
12d	.	.
12f	.	.
16e	4r	12gg]
16f#	.	.
.	.	12aa
4g	.	12bb-
.	4e-	12aa
.	.	12bb-
8f	.	.
.	.	12cccn
=50	=50	=50
4g	8.d	12bb-
.	.	12aa
.	.	12gg
.	16en	.
4r	12fn	[4aa
.	12e	.
.	12d	.
4r	8.c#	12aa]
.	.	12gg
.	.	12ff
.	16a	.
4G	12b-	12gg
.	12a	12ff
.	12g	12ee
=51	=51	=51
4d	4a	8.ff
.	.	16aa
4r	4f	8.ddd
.	.	16aa
4r	4d	8.ff
.	.	16ee
4d	4a	8.ff#
.	.	16gg#
=52	=52	=52
8.c	4e	4aa
16A	.	.
8.E	4r	4cc
16A	.	.
8.c	4r	4ee
16e	.	.
8.d	4e	4aa
16c	.	.
=53	=53	=53
4g	4ee	8.ee
.	.	16gg
4r	4e	8.ccc
.	.	16gg
4r	4c	8.ee
.	.	16dd
4c	4g	8.ee
.	.	16ff#
=54	=54	=54
8.B-	4d	4gg
16G	.	.
8.D	4r	4b-
16G	.	.
8.B-	4r	4dd
16d	.	.
8.c	4d	4gg
16B-	.	.
=55	=55	=55
4f	4dd	8.dd
.	.	16ff
4r	4d	8.bb-
.	.	16ff
4r	4B-	8.dd
.	.	16cc
4B-	4f	8.dd
.	.	16ee
=56	=56	=56
8.A	4c	2ff
16F	.	.
8.C	4A	.
16F	.	.
8.A	4c	4r
16c	.	.
8.B-	4f	4dd
16A	.	.
=57	=57	=57
4e	4e	8.cc#
.	.	16ee
4r	4c#	8.aa
.	.	16ee
4r	4e	8.cc#
.	.	16bn
4A	4a	8.cc#
.	.	16dd
=58	=58	=58
4B-	8.g	4ee
.	16e	.
4r	8.c#	4r
.	16e	.
8.r	8.g	8.r
16E	16b-	16gg
8.F	8.a	8.ff
16G	16g	16ee
=59	=59	=59
2C#;	2ee;	2bb-;
4r	4r	4r
12r	4e	4gg
12C#	.	.
12B-	.	.
=60	=60	=60
[4A	12f	12ff
.	12g	12ee
.	12a	12dd
12A]	[4e	12cc#
12G	.	12ee
12F#	.	12dd
[4G	12e]	12ccn
.	12f#	12dd
.	12g	12cc#
12G]	4d	12b-
12A	.	12cc
12G	.	12b-
=61	=61	=61
[4Fn	4a	12a
.	.	12ff
.	.	12ee
12F]	4r	12dd
12E	.	12ee
12D	.	12ff
[4E	4r	12gg
.	.	12ee
.	.	12dd
12E]	4e'	12cc#
12F	.	12dd
12E	.	12ee
=62	=62	=62
[1D	4A'	12ff
.	.	12aa
.	.	12ff
.	[4a	12dd
.	.	12ff
.	.	12dd
.	12a]	12a
.	12g	12b-
.	12f	12cc
.	12g	12b-
.	12f	12a
.	12e	12g
=63	=63	=63
12D]	12f	[1a
12C#	12e	.
12BBn	12d	.
12C#	[4e	.
12E	.	.
12A	.	.
12G	12e]	.
12F	12d	.
12E	12c#	.
12F	12d	.
12E	12c#	.
12D	12Bn	.
=64	=64	=64
12E	12c#	4a_
12F	12d	.
12G	12e	.
12F#	[4d	12a]
12G	.	12b-
12A	.	12ccn
4G	12d]	4b-
.	12e	.
.	12fn	.
4r	12e	4r
.	12f	.
.	12g	.
=65	=65	=65
2r	8.f	12r
.	.	12a
.	.	12dd
.	16d	.
.	8.A	12ff
.	.	12dd
.	.	12ff
.	16d	.
4r	8.f	12aa
.	.	12ff
.	.	12dd
.	16g	.
4A'	8.f	12a
.	.	12b-
.	.	12cc
.	16e	.
=66	=66	=66
4d'	[1d	12b-
.	.	12dd
.	.	12gg
[4D	.	12bb-
.	.	12aa
.	.	12gg
12D]	.	12ff#
12E	.	12gg
12F#	.	12aa
12E	.	8.gg
12F#	.	.
12G	.	.
.	.	16b-
=67	=67	=67
12F#	1d_	[4a
12G	.	.
12A	.	.
[4G	.	12a]
.	.	12b-
.	.	12cc
12G]	.	12b-
12A	.	12a
12B-	.	12g
12A	.	12f#
12B-	.	12g
12c	.	12a
=68	=68	=68
12B-	4d]	8.g
12A	.	.
12G	.	.
.	.	16ee
[4A	4c#	12ffn
.	.	12gg
.	.	12aa
12A]	4e	2cc#T
12G	.	.
12F	.	.
12G	4b-	.
12F	.	.
12E	.	.
=69	=69	=69
8.F	12a	4dd
.	12dd	.
.	12a	.
16A	.	.
8.d	12f	4r
.	12a	.
.	12f	.
16A	.	.
8.F	4d	8.r
16E	.	16cc#
8.F#	4dd	8.dd
16G	.	16ee
=70	=70	=70
12A	[4a	12ff#
12B-	.	12gg
12c	.	12aa
[4B-	12a]	2dd
.	12f#	.
.	12e	.
12B-]	12d	.
12c	12c	.
12B-	12d	.
12c#	8.A	12ee
12Bn	.	12dd
12A	.	12cc#
.	16a	.
=71	=71	=71
2.d;	2.a;	2.ff#;
====	====	====
*-	*-	*-
